X:3
T:The Phoenix $1(\251Dave Hennessy)
R:Reel
M:C|
L:1/8
K:D
%%text $1 Don't play pickups on transition.
de|"D"f2 df "A"edcA | "G"BAGB "D"AGFd | fddf "A"edcA | "G"BAGB "A"A2 ag |
"D"f2 df "A"edcA | "G"BAGB "A"AGFE| "D"DEFG ABdf | "A"edce "D"d2:|
|:cd|"Bm"B3 B Bcde |f2 ef "A"edcd | "Bm"B3B Bcde | f2 df "A"edcd |
"Bm"B2 Fd B2 Fd |BFBd "A"cBAc | "G"B3B Bcde|1"A"fedc "Bm"B2:|[2 "A"fedc "D"d2|]
